images/deal.svg

<svg width="50" height="50" viewBox="0 0 50 50" fill="none" xmlns="http://www.w3.org/2000/svg">
<path d="M15.8885 14.2057C14.2808 14.2057 12.9729 15.5006 12.9729 17.0922C12.9729 18.6839 14.2808 19.9788 15.8885 19.9788C17.4962 19.9788 18.8042 18.6839 18.8042 17.0922C18.8042 15.5006 17.4962 14.2057 15.8885 14.2057ZM15.8885 18.3707C15.1765 18.3707 14.5973 17.7971 14.5973 17.0923C14.5973 16.3875 15.1765 15.814 15.8885 15.814C16.6005 15.814 17.1797 16.3875 17.1797 17.0923C17.1797 17.7971 16.6004 18.3707 15.8885 18.3707ZM17.459 7.3272L8.59946 19.536C8.33844 19.8951 7.83273 19.9767 7.46997 19.7182C7.10722 19.4598 7.02488 18.9592 7.2859 18.6L16.1455 6.39122C16.4065 6.03209 16.9122 5.95057 17.275 6.20899C17.6377 6.46751 17.7201 6.96817 17.459 7.3272ZM11.7647 8.74503C11.7647 7.15341 10.4567 5.8584 8.84902 5.8584C7.24133 5.8584 5.93336 7.15331 5.93336 8.74503C5.93336 10.3367 7.24123 11.6316 8.84902 11.6316C10.4567 11.6316 11.7647 10.3367 11.7647 8.74503ZM7.55779 8.74503C7.55779 8.04014 8.13711 7.46661 8.84902 7.46661C9.56093 7.46661 10.1402 8.04014 10.1402 8.74503C10.1402 9.44993 9.56103 10.0234 8.84902 10.0234C8.13701 10.0234 7.55779 9.44983 7.55779 8.74503ZM49.9445 21.2124L47.9741 10.7216C47.7292 9.41887 47.2903 7.94364 45.8904 6.88042C44.5729 5.87981 43.1203 5.78744 41.8414 5.86624L37.4296 1.01066C36.8288 0.349484 36.0365 0 35.1383 0H3.08186C1.3825 0 0 1.36869 0 3.05107V22.7862C0 24.4686 1.3826 25.8373 3.08186 25.8373H14.7539L9.14101 33.0805C8.10675 34.4154 8.36219 36.3345 9.71027 37.3586L25.5265 49.371C26.0848 49.795 26.7442 50 27.3988 50C28.3251 50 29.2415 49.5893 29.8476 48.8072L49.3597 23.6274C49.9066 22.9217 50.1088 22.0866 49.9445 21.2124ZM3.08186 24.2291C2.27817 24.2291 1.62444 23.5819 1.62444 22.7862V3.05107C1.62444 2.25541 2.27827 1.60821 3.08186 1.60821H35.1383C35.5753 1.60821 35.9297 1.76451 36.2219 2.08615L39.7987 6.02274L30.8579 6.71598C29.9624 6.78533 29.2001 7.19502 28.6532 7.90062L16.0002 24.2291H3.08186ZM48.0709 22.6484L28.5589 47.8283C28.0698 48.4597 27.1531 48.5794 26.5154 48.0949L10.6993 36.0826C10.0617 35.5983 9.94094 34.6906 10.43 34.0593L29.9421 8.87952C30.2081 8.53627 30.5492 8.35303 30.9847 8.31926L41.7299 7.48611C42.8357 7.40047 43.9895 7.46359 44.9017 8.15633C45.679 8.74674 46.1064 9.57507 46.3771 11.0156L48.3475 21.5063C48.4274 21.9316 48.3369 22.3051 48.0709 22.6484ZM42.737 10.9498C41.4587 9.97903 39.6208 10.2187 38.6401 11.4842C37.6593 12.7498 37.9015 14.5694 39.1798 15.5403C40.4424 16.4993 42.3097 16.254 43.2768 15.0059C44.2575 13.7403 44.0153 11.9207 42.737 10.9498ZM41.988 14.027C41.5579 14.582 40.7285 14.6897 40.1687 14.2643C39.6079 13.8383 39.499 13.0179 39.929 12.4631C40.1842 12.1337 40.57 11.9608 40.9601 11.9608C42.0074 11.9609 42.6325 13.1952 41.988 14.027ZM41.4572 21.045L38.8167 24.4534C38.5451 24.8055 38.0366 24.8731 37.6808 24.6042L30.6685 19.2799C30.3128 19.011 30.2446 18.5076 30.5162 18.1554C30.7877 17.8033 31.2963 17.7357 31.652 18.0046L38.0228 22.8417L40.169 20.0712C40.4406 19.7191 40.9491 19.6516 41.3049 19.9205C41.6606 20.1893 41.7287 20.6929 41.4572 21.045ZM25.9852 36.167L22.4156 33.4568C21.1503 32.4961 19.2109 32.7491 18.2382 34.0048L16.9179 35.709C16.6463 36.0611 16.7145 36.5646 17.0702 36.8335L24.0826 42.1578C24.4382 42.4266 24.9469 42.3591 25.2185 42.007C25.2185 42.007 26.5372 40.3047 26.5387 40.3028C27.5029 39.0581 27.2358 37.1165 25.9852 36.167ZM25.2507 39.329L24.4246 40.3953L18.6983 36.0474L19.5264 34.9784C19.9713 34.4041 20.8446 34.2858 21.4322 34.732L25.0018 37.4422C25.5819 37.8828 25.7015 38.747 25.2507 39.329ZM32.2491 32.9314L29.6087 36.3398C29.3371 36.6919 28.8286 36.7594 28.4728 36.4906L21.4604 31.1663C21.1048 30.8974 21.0366 30.3939 21.3081 30.0417L23.9486 26.6333C24.2202 26.2812 24.7287 26.2137 25.0845 26.4826C25.4401 26.7514 25.5083 27.2549 25.2367 27.6071L23.0884 30.3803L25.3086 32.066L26.6845 30.2898C26.9561 29.9377 27.4647 29.8702 27.8204 30.139C28.1761 30.4079 28.2443 30.9114 27.9727 31.2636L26.5947 33.0424L28.8149 34.7282L30.9611 31.9577C31.2326 31.6056 31.7412 31.5381 32.0969 31.8069C32.4526 32.0757 32.5207 32.5792 32.2491 32.9314ZM36.8899 25.3545L28.1523 22.2572L28.1516 22.2592C27.9147 22.1758 27.6421 22.2023 27.4194 22.3545C27.0514 22.606 26.9591 23.1053 27.2132 23.4696L32.5004 31.0209C32.7544 31.3852 33.2588 31.4767 33.6268 31.2251C33.9947 30.9736 34.0871 30.4742 33.833 30.11L32.5675 28.3026L34.2529 26.1269L36.3442 26.8683C36.7665 27.0175 37.231 26.7996 37.3817 26.3815C37.5324 25.9635 37.3123 25.5037 36.8899 25.3545ZM31.5979 26.9178L29.985 24.6141L32.6505 25.5591L31.5979 26.9178Z" fill="#F2AB00"/>
</svg>

<svg width="50" height="50" fill="none" xmlns="http://www.w3.org/2000/svg"><path d="M15.889 14.206c-1.608 0-2.916 1.295-2.916 2.886 0 1.592 1.308 2.887 2.915 2.887 1.608 0 2.916-1.295 2.916-2.887 0-1.591-1.308-2.886-2.915-2.886zm0 4.165a1.286 1.286 0 0 1-1.292-1.279c0-.704.58-1.278 1.292-1.278.712 0 1.29.573 1.29 1.278 0 .705-.579 1.279-1.29 1.279zm1.57-11.044-8.86 12.209a.814.814 0 0 1-1.129.182.796.796 0 0 1-.184-1.118l8.86-12.209a.814.814 0 0 1 1.129-.182c.363.259.445.76.184 1.118zm-5.694 1.418c0-1.592-1.308-2.887-2.916-2.887-1.608 0-2.916 1.295-2.916 2.887s1.308 2.887 2.916 2.887c1.608 0 2.916-1.295 2.916-2.887zm-4.207 0c0-.705.58-1.278 1.291-1.278.712 0 1.291.573 1.291 1.278 0 .705-.579 1.278-1.291 1.278a1.286 1.286 0 0 1-1.291-1.278zm42.386 12.467-1.97-10.49c-.245-1.303-.684-2.778-2.084-3.842-1.317-1-2.77-1.093-4.049-1.014L37.43 1.011A3.02 3.02 0 0 0 35.138 0H3.082C1.382 0 0 1.369 0 3.051v19.735c0 1.683 1.383 3.051 3.082 3.051h11.672L9.14 33.081a3.035 3.035 0 0 0 .57 4.278L25.525 49.37A3.086 3.086 0 0 0 27.4 50a3.09 3.09 0 0 0 2.449-1.193l19.512-25.18c.547-.705.749-1.54.584-2.415zM3.082 24.23a1.452 1.452 0 0 1-1.458-1.443V3.051c0-.796.654-1.443 1.458-1.443h32.056c.437 0 .792.157 1.084.478l3.577 3.937-8.941.693a3.014 3.014 0 0 0-2.205 1.185L16 24.229H3.082zm44.989-1.58-19.512 25.18a1.469 1.469 0 0 1-2.044.266L10.7 36.083a1.435 1.435 0 0 1-.269-2.024L29.942 8.88a1.39 1.39 0 0 1 1.043-.56l10.745-.833c1.106-.086 2.26-.022 3.172.67.777.59 1.204 1.42 1.475 2.86l1.97 10.49c.08.426-.01.8-.276 1.142zm-5.334-11.7a2.945 2.945 0 0 0-4.097.535 2.877 2.877 0 0 0 .54 4.056c1.262.96 3.13.714 4.097-.534a2.877 2.877 0 0 0-.54-4.056zm-.749 3.078a1.32 1.32 0 0 1-1.82.237 1.289 1.289 0 0 1-.239-1.8 1.3 1.3 0 0 1 1.031-.503c1.047 0 1.672 1.234 1.028 2.066zm-.53 7.018-2.641 3.408a.816.816 0 0 1-1.136.151l-7.012-5.324a.797.797 0 0 1-.153-1.125.816.816 0 0 1 1.136-.15l6.37 4.837 2.147-2.77a.816.816 0 0 1 1.136-.151.797.797 0 0 1 .152 1.124zM25.984 36.167l-3.57-2.71c-1.265-.96-3.204-.708-4.177.548l-1.32 1.704a.797.797 0 0 0 .152 1.124l7.013 5.325a.816.816 0 0 0 1.136-.151l1.32-1.704c.964-1.245.697-3.186-.554-4.136zm-.734 3.162-.826 1.066-5.727-4.348.828-1.069a1.388 1.388 0 0 1 1.906-.246l3.57 2.71c.58.44.7 1.305.249 1.887zm6.998-6.398-2.64 3.409a.816.816 0 0 1-1.136.15l-7.013-5.324a.797.797 0 0 1-.152-1.124l2.64-3.409a.816.816 0 0 1 1.136-.15.797.797 0 0 1 .153 1.124l-2.149 2.773 2.22 1.686 1.377-1.776a.816.816 0 0 1 1.135-.151.797.797 0 0 1 .153 1.125l-1.378 1.778 2.22 1.686 2.146-2.77a.816.816 0 0 1 1.136-.151.797.797 0 0 1 .152 1.124zm4.64-7.576-8.737-3.098v.002a.816.816 0 0 0-.733.096.797.797 0 0 0-.206 1.115l5.287 7.55a.815.815 0 0 0 1.127.205.797.797 0 0 0 .206-1.115l-1.265-1.807 1.685-2.176 2.091.741a.814.814 0 0 0 1.038-.486.801.801 0 0 0-.492-1.027zm-5.291 1.563-1.613-2.304 2.666.945-1.053 1.359z" fill="#F2AB00"/></svg>
